icons/op-key-24.svg

<svg width="24" height="24" viewBox="0 0 24 24" fill="none" xmlns="http://www.w3.org/2000/svg">
<path d="M17.9072 7.71153C18.1175 8.9544 17.9673 10.1335 17.4866 11.2171C17.006 12.3006 16.2249 12.938 15.1734 13.1292C14.5125 13.2567 13.8515 13.2567 13.1906 13.1611L11.358 16.3161L10.2765 16.5073L8.68427 19.2161C8.53406 19.5348 8.32377 19.6941 7.9933 19.7579L6.82165 19.981C6.70149 20.0128 6.58132 20.0128 6.46115 19.9172C6.37102 19.8216 6.31094 19.6941 6.28089 19.5667L6.04056 17.9414C5.95043 17.6227 6.01051 17.3359 6.22081 17.049L10.1864 10.739C9.94605 10.1973 9.76579 9.55991 9.61558 8.79506C9.43533 7.61592 9.70571 6.62799 10.4267 5.73567C11.1477 4.84335 12.1091 4.30158 13.2807 4.0785C14.3623 3.85542 15.3536 4.11037 16.285 4.81148C17.1862 5.51259 17.727 6.50052 17.9072 7.71153ZM15.9845 8.95441C16.285 8.47638 16.4051 7.93461 16.315 7.36097C16.2249 6.78734 15.9545 6.34118 15.5039 6.02249C15.0833 5.67194 14.6026 5.54446 14.0919 5.64007C13.5812 5.76754 13.1906 6.05436 12.8601 6.53239L12.6799 6.91481C12.6498 7.04229 12.6498 7.13789 12.6799 7.2335C12.7099 7.3291 12.74 7.42471 12.74 7.48845C12.77 7.58405 12.8301 7.64779 12.9503 7.77527C13.0704 7.87087 13.1606 7.96648 13.2206 8.03021C13.3108 8.06208 13.4009 8.15769 13.5511 8.28516C13.7314 8.41264 13.8515 8.47638 13.9116 8.54011C13.9717 8.60385 14.0919 8.69946 14.2421 8.82693C14.4223 8.95441 14.5425 9.05001 14.6026 9.08188C14.6927 9.11375 14.7828 9.17749 14.903 9.27309C15.0232 9.3687 15.1133 9.40057 15.2034 9.40057H15.4438C15.5639 9.3687 15.6541 9.33683 15.7442 9.24122C15.8043 9.17749 15.8944 9.08188 15.9845 8.95441Z" fill="black"/>
</svg>

<svg xmlns="http://www.w3.org/2000/svg" width="24" height="24" viewBox="0 0 24 24"><path d="M17.907 7.712c.21 1.242.06 2.421-.42 3.505-.481 1.084-1.262 1.721-2.314 1.912a5.89 5.89 0 0 1-1.982.032l-1.833 3.155-1.081.191-1.593 2.709c-.15.319-.36.478-.691.542l-1.171.223c-.121.032-.241.032-.361-.064a.772.772 0 0 1-.18-.35l-.24-1.626c-.091-.318-.03-.605.18-.892l3.965-6.31c-.24-.542-.42-1.179-.57-1.944-.181-1.179.09-2.167.811-3.059.721-.893 1.682-1.434 2.854-1.657 1.081-.224 2.073.031 3.004.732.901.702 1.442 1.69 1.622 2.901Zm-1.922 1.242c.3-.478.42-1.019.33-1.593-.09-.574-.361-1.02-.811-1.339-.421-.35-.901-.478-1.412-.382-.511.128-.901.414-1.232.892l-.18.383a.574.574 0 0 0 0 .319c.03.095.06.191.06.254.03.096.09.16.21.287.12.096.211.191.271.255.09.032.18.128.33.255.18.128.3.191.361.255.06.064.18.159.33.287.18.127.301.223.361.255.09.032.18.095.3.191s.21.128.3.128h.241a.56.56 0 0 0 .3-.16c.06-.064.15-.159.241-.287Z"/></svg>
